**kern	**kern	**dynam
*part1	*part1	*part1
*staff2	*staff1	*
*I"Piano	*	*
*clefF4	*clefF4	*
*k[]	*k[]	*
=1	=1	=1
2.r	2.AA 2.C 2.E	pp
=	=	=
4r	2.AA 2.C 2.E	.
4r	.	.
(16AAALL	.	mp
16BBB	.	.
16CC	.	.
16DDJJ	.	.
=	=	=
4.EE)	2.r	.
8EE	.	.
4EE	.	.
=	=	=
4r	2.AA 2.C 2.E	.
4r	.	.
(16AAALL	.	p
16BBB	.	.
16CC	.	.
16DDJJ	.	.
=	=	=
4.EE)	2.r	.
8EE	.	.
4EE	.	.
=	=	=
!	!LO:TX:b:i:t=dim.	!
4r	2AA 2C 2E	.
4r	.	.
4AAA 4EE	4r	pp
=	=	=
4r	2AA 2C 2E	.
4r	.	.
4AAA 4EE	4r	.
=	=	=
4r	2AA 2C 2E	>
4r	.	.
4AAA 4EE	4r	.
=	=	=
4r	2AA 2C 2E	.
4r	.	.
4AAA 4EE	4r	.
=	=	=
2.r	2.AA; 2.C 2.E	] >
==	==	==
*-	*-	*-
!!!system-decoration: {(s1,s2)}
